Newaita-dark/apps/48/woeusbgui-icon.svg

<svg height="48pt" viewBox="0 0 48 48" width="48pt" xmlns="http://www.w3.org/2000/svg" xmlns:xlink="http://www.w3.org/1999/xlink"><linearGradient id="a" gradientUnits="userSpaceOnUse" x1="19.84566809347" x2="19.84566809347" y1="42.05090309362" y2="44.03546759352"><stop offset="0" stop-opacity=".27451"/><stop offset="1" stop-opacity="0"/></linearGradient><linearGradient id="b"><stop offset="0" stop-opacity=".313726"/><stop offset=".222222" stop-opacity=".27451"/><stop offset="1" stop-opacity="0"/></linearGradient><radialGradient id="c" cx="450.908936" cy="189.579361" gradientTransform="matrix(.00000026 -.117199 -.210958 -.00000015 65.296308 95.392999)" gradientUnits="userSpaceOnUse" r="21.166656" xlink:href="#b"/><radialGradient id="d" cx="450.908936" cy="189.579361" gradientTransform="matrix(-.00000026 .117199 .210958 .00000015 -25.605013 -11.291218)" gradientUnits="userSpaceOnUse" r="21.166656" xlink:href="#b"/><radialGradient id="e" cx="450.908936" cy="189.579361" gradientTransform="matrix(-.00000026 -.117199 .210958 -.00000015 -25.605013 95.392999)" gradientUnits="userSpaceOnUse" r="21.166656" xlink:href="#b"/><radialGradient id="f" cx="450.908936" cy="189.579361" gradientTransform="matrix(.00000026 .117199 -.210958 .00000015 65.296305 -11.291219)" gradientUnits="userSpaceOnUse" r="21.166656" xlink:href="#b"/><linearGradient id="g" gradientUnits="userSpaceOnUse" x1="211.666672" x2="211.666672" y1="-41.666668" y2="-126.333344"><stop offset="0" stop-color="#ffca28"/><stop offset="1" stop-color="#ffe082"/></linearGradient><linearGradient id="h" gradientUnits="userSpaceOnUse" x1="211.666352" x2="211.666352" y1="-20.50024695395" y2="-168.66671875188"><stop offset="0" stop-color="#bdbdbd"/><stop offset="1" stop-color="#e0e0e0"/></linearGradient><linearGradient id="i"><stop offset="0" stop-color="#9e9e9e"/><stop offset="1" stop-color="#e0e0e0"/></linearGradient><linearGradient id="j" gradientUnits="userSpaceOnUse" x1="211.666352" x2="211.666352" xlink:href="#i" y1="233.49944918561" y2="-20.50024695395"/><linearGradient id="k" gradientUnits="userSpaceOnUse" x1="211.666672" x2="211.666672" xlink:href="#i" y1="85.333336" y2="138.25"/><linearGradient id="l" gradientUnits="userSpaceOnUse" x1="30.2645962" x2="30.2645962" y1="23.39374948576" y2="42.06244705"><stop offset="0" stop-color="#e0e0e0"/><stop offset="1" stop-color="#bdbdbd"/></linearGradient><linearGradient id="m" gradientUnits="userSpaceOnUse" x1="29.7684825" x2="29.7684825" y1="42.0509015" y2="23.19752899998"><stop offset="0" stop-color="#42a5f5"/><stop offset="1" stop-color="#64b5f6"/></linearGradient><linearGradient id="n" gradientUnits="userSpaceOnUse" x1="31.7530469999" x2="31.7530469999" y1="42.0509015" y2="23.19752899998"><stop offset="0" stop-color="#ffa726"/><stop offset="1" stop-color="#ffb74d"/></linearGradient><linearGradient id="o" gradientUnits="userSpaceOnUse" x1="322.791639" x2="322.791639" y1="175.98512286443" y2="92.14767625"><stop offset="0" stop-color="#f5f5f5"/><stop offset="1" stop-color="#e0e0e0"/></linearGradient><path d="m13.890625 42.050781h11.910156v1.984375h-11.910156zm0 0" fill="url(#a)"/><path d="m25.800781 42.050781h3.96875v-1.984375h-3.96875zm0 0" fill="url(#c)"/><path d="m13.890625 42.050781h-3.96875v1.984375h3.96875zm0 0" fill="url(#d)"/><path d="m13.890625 42.050781h-3.96875v-1.984375h3.96875zm0 0" fill="url(#e)"/><path d="m25.800781 42.050781h3.96875v1.984375h-3.96875zm0 0" fill="url(#f)"/><g stroke-width="3"><path d="m158.734842-126.3418h105.86489c5.832776 0 10.582323 4.749547 10.582323 10.582323v63.493937c0 5.874439-4.749547 10.582322-10.582323 10.582322h-105.86489c-5.832777 0-10.582323-4.707883-10.582323-10.582322v-63.493937c0-5.832776 4.749546-10.582323 10.582323-10.582323zm0 0" fill="url(#g)" stroke="#212121" stroke-linecap="square" stroke-linejoin="round" transform="matrix(.093759 0 0 .093759 0 20.158175)"/><path d="m148.152519-168.671091c-5.832777 0-10.582323 4.707884-10.582323 10.582323v137.570196c0 5.874439 4.749546 10.582323 10.582323 10.582323h127.029536c5.832776 0 10.582323-4.707884 10.582323-10.582323v-137.570196c0-5.874439-4.749547-10.582323-10.582323-10.582323zm21.164645 52.911614c5.874439 0 10.582323 4.749546 10.582323 10.582323v42.329291c0 5.874439-4.707884 10.582323-10.582323 10.582323-5.832776 0-10.582322-4.707884-10.582322-10.582323v-42.329291c0-5.832777 4.749546-10.582323 10.582322-10.582323zm42.329291 0c5.874439 0 10.623986 4.749546 10.623986 10.582323v42.329291c0 5.874439-4.749547 10.582323-10.623986 10.582323-5.832776 0-10.582322-4.707884-10.582322-10.582323v-42.329291c0-5.832777 4.749546-10.582323 10.582322-10.582323zm42.370954 0c5.832777 0 10.582323 4.749546 10.582323 10.582323v42.329291c0 5.874439-4.749546 10.582323-10.582323 10.582323-5.874439 0-10.582323-4.707884-10.582323-10.582323v-42.329291c0-5.832777 4.707884-10.582323 10.582323-10.582323zm0 0" fill="url(#h)" stroke="#212121" stroke-linecap="square" stroke-linejoin="round" transform="matrix(.093759 0 0 .093759 0 20.158175)"/><path d="m126.987873-20.518572c-11.707215 0-21.164645 9.45743-21.164645 21.164645v84.700245c5.874439 0 10.582322 4.707884 10.582322 10.582323v31.746968c0 5.874439-4.707883 10.582323-10.582322 10.582323v74.07626c0 11.707215 9.45743 21.164645 21.164645 21.164645h169.358827c11.707216 0 21.164646-9.45743 21.164646-21.164645v-74.07626c-5.874439 0-10.582323-4.707884-10.582323-10.582323v-31.746968c0-5.874439 4.707884-10.582323 10.582323-10.582323v-84.700245c0-11.707215-9.45743-21.164645-21.164646-21.164645zm0 0" fill="url(#j)" stroke="#212121" stroke-linecap="square" stroke-linejoin="round" transform="matrix(.093759 0 0 .093759 0 20.158175)"/><path d="m148.152519 85.346318h127.029536c5.832776 0 10.582323 4.707884 10.582323 10.582323v31.746968c0 5.832777-4.749547 10.582323-10.582323 10.582323h-127.029536c-5.832777 0-10.582323-4.749546-10.582323-10.582323v-31.746968c0-5.874439 4.749546-10.582323 10.582323-10.582323zm0 0" fill="url(#k)" stroke="#212121" stroke-linecap="square" stroke-linejoin="round" transform="matrix(.093759 0 0 .093759 0 20.158175)"/></g><path d="m30.265625 23.394531c-5.171875 0-9.335937 4.164063-9.335937 9.332031 0 5.171876 4.164062 9.335938 9.335937 9.335938s9.332031-4.164062 9.332031-9.335938c0-5.167968-4.160156-9.332031-9.332031-9.332031zm0 7.367188c1.085937 0 1.964844.878906 1.964844 1.964843 0 1.089844-.878907 1.964844-1.964844 1.964844-1.089844 0-1.964844-.875-1.964844-1.964844 0-1.085937.875-1.964843 1.964844-1.964843zm0 0" fill="url(#l)"/><path d="m27.371094 23.851562c-4.511719 1.464844-7.195313 6.066407-6.261719 10.707032l7.191406-1.925782c.03125-.667968.40625-1.28125.992188-1.613281zm0 0" fill="#ef5350"/><path d="m28.332031 23.597656 1.917969 7.164063c.675781-.003907 1.304688.339843 1.667969.902343l7.1875-1.925781c-1.507813-4.488281-6.132813-7.132812-10.773438-6.140625zm0 0" fill="#66bb6a"/><path d="m21.359375 35.519531c1.4375 4.609375 6.128906 7.34375 10.839844 6.339844l-1.921875-7.164063c-.746094.003907-1.4375-.414062-1.773438-1.089843zm0 0" fill="url(#m)"/><path d="m32.226562 32.609375c.046876.75-.339843 1.460937-.992187 1.828125l1.921875 7.164062c4.582031-1.484374 7.277344-6.199218 6.21875-10.910156zm0 0" fill="url(#n)"/><path d="m322.802507 92.137337c-23.24778 0-41.912664 18.706546-41.912664 41.912664 0 23.24778 18.664884 41.954327 41.912664 41.954327 23.206117 0 41.912664-18.706547 41.912664-41.954327 0-23.206118-18.706547-41.912664-41.912664-41.912664zm0 20.956332c11.582228 0 20.956332 9.374104 20.956332 20.956332 0 11.62389-9.374104 20.956332-20.956332 20.956332-11.62389 0-20.956332-9.332442-20.956332-20.956332 0-11.582228 9.332442-20.956332 20.956332-20.956332zm0 0" fill="url(#o)" stroke="#333" stroke-linecap="round" stroke-width="3" transform="matrix(.093759 0 0 .093759 0 20.158175)"/><path d="m322.802507 34.517839c-55.161399 0-99.573824 44.412425-99.573824 99.532162 0 55.161399 44.412425 99.573824 99.573824 99.573824s99.532162-44.412425 99.532162-99.573824c0-55.119737-44.370763-99.532162-99.532162-99.532162zm0 78.57583c11.582228 0 20.956332 9.374104 20.956332 20.956332 0 11.62389-9.374104 20.956332-20.956332 20.956332-11.62389 0-20.956332-9.332442-20.956332-20.956332 0-11.582228 9.332442-20.956332 20.956332-20.956332zm0 0" fill="none" stroke="#333" stroke-linecap="round" stroke-width="3" transform="matrix(.093759 0 0 .093759 0 20.158175)"/></svg>

<?xml version="1.0" encoding="UTF-8"?>
<svg xmlns="http://www.w3.org/2000/svg" xmlns:xlink="http://www.w3.org/1999/xlink" width="48pt" height="48pt" viewBox="0 0 48 48" version="1.1">
<defs>
<linearGradient id="linear0" gradientUnits="userSpaceOnUse" x1="507.999969" y1="233.499985" x2="507.999969" y2="254.666641" gradientTransform="matrix(0.093759,0,0,0.093759,-27.783901,20.158178)">
<stop offset="0" style="stop-color:rgb(0%,0%,0%);stop-opacity:0.27451;"/>
<stop offset="1" style="stop-color:rgb(0%,0%,0%);stop-opacity:0;"/>
</linearGradient>
<radialGradient id="radial0" gradientUnits="userSpaceOnUse" cx="450.908936" cy="189.579361" fx="450.908936" fy="189.579361" r="21.166656" gradientTransform="matrix(0.000000261256,-0.117199,-0.210958,-0.000000152308,65.296308,95.392999)">
<stop offset="0" style="stop-color:rgb(0%,0%,0%);stop-opacity:0.313726;"/>
<stop offset="0.222222" style="stop-color:rgb(0%,0%,0%);stop-opacity:0.27451;"/>
<stop offset="1" style="stop-color:rgb(0%,0%,0%);stop-opacity:0;"/>
</radialGradient>
<radialGradient id="radial1" gradientUnits="userSpaceOnUse" cx="450.908936" cy="189.579361" fx="450.908936" fy="189.579361" r="21.166656" gradientTransform="matrix(-0.000000261256,0.117199,0.210958,0.000000152308,-25.605013,-11.291218)">
<stop offset="0" style="stop-color:rgb(0%,0%,0%);stop-opacity:0.313726;"/>
<stop offset="0.222222" style="stop-color:rgb(0%,0%,0%);stop-opacity:0.27451;"/>
<stop offset="1" style="stop-color:rgb(0%,0%,0%);stop-opacity:0;"/>
</radialGradient>
<radialGradient id="radial2" gradientUnits="userSpaceOnUse" cx="450.908936" cy="189.579361" fx="450.908936" fy="189.579361" r="21.166656" gradientTransform="matrix(-0.000000261256,-0.117199,0.210958,-0.000000152308,-25.605013,95.392999)">
<stop offset="0" style="stop-color:rgb(0%,0%,0%);stop-opacity:0.313726;"/>
<stop offset="0.222222" style="stop-color:rgb(0%,0%,0%);stop-opacity:0.27451;"/>
<stop offset="1" style="stop-color:rgb(0%,0%,0%);stop-opacity:0;"/>
</radialGradient>
<radialGradient id="radial3" gradientUnits="userSpaceOnUse" cx="450.908936" cy="189.579361" fx="450.908936" fy="189.579361" r="21.166656" gradientTransform="matrix(0.000000261256,0.117199,-0.210958,0.000000152308,65.296305,-11.291219)">
<stop offset="0" style="stop-color:rgb(0%,0%,0%);stop-opacity:0.313726;"/>
<stop offset="0.222222" style="stop-color:rgb(0%,0%,0%);stop-opacity:0.27451;"/>
<stop offset="1" style="stop-color:rgb(0%,0%,0%);stop-opacity:0;"/>
</radialGradient>
<linearGradient id="linear1" gradientUnits="userSpaceOnUse" x1="254" y1="-41.666668" x2="254" y2="-126.333344" gradientTransform="matrix(1,0,0,1,-42.333328,0)">
<stop offset="0" style="stop-color:rgb(100%,79.215688%,15.686275%);stop-opacity:1;"/>
<stop offset="1" style="stop-color:rgb(100%,87.843138%,50.980395%);stop-opacity:1;"/>
</linearGradient>
<linearGradient id="linear2" gradientUnits="userSpaceOnUse" x1="960" y1="735.118103" x2="960" y2="175.118134" gradientTransform="matrix(0.264583,0,0,0.264583,-42.333328,-215)">
<stop offset="0" style="stop-color:rgb(74.117649%,74.117649%,74.117649%);stop-opacity:1;"/>
<stop offset="1" style="stop-color:rgb(87.843138%,87.843138%,87.843138%);stop-opacity:1;"/>
</linearGradient>
<linearGradient id="linear3" gradientUnits="userSpaceOnUse" x1="960" y1="1695.118164" x2="960" y2="735.118103" gradientTransform="matrix(0.264583,0,0,0.264583,-42.333328,-215)">
<stop offset="0" style="stop-color:rgb(61.960787%,61.960787%,61.960787%);stop-opacity:1;"/>
<stop offset="1" style="stop-color:rgb(87.843138%,87.843138%,87.843138%);stop-opacity:1;"/>
</linearGradient>
<linearGradient id="linear4" gradientUnits="userSpaceOnUse" x1="254" y1="85.333336" x2="254" y2="138.25" gradientTransform="matrix(1,0,0,1,-42.333328,0)">
<stop offset="0" style="stop-color:rgb(61.960787%,61.960787%,61.960787%);stop-opacity:1;"/>
<stop offset="1" style="stop-color:rgb(87.843138%,87.843138%,87.843138%);stop-opacity:1;"/>
</linearGradient>
<linearGradient id="linear5" gradientUnits="userSpaceOnUse" x1="254" y1="-168.666672" x2="254" y2="233.5" gradientTransform="matrix(0.0464203,0,0,0.0464203,18.47384,31.223307)">
<stop offset="0" style="stop-color:rgb(87.843138%,87.843138%,87.843138%);stop-opacity:1;"/>
<stop offset="1" style="stop-color:rgb(74.117649%,74.117649%,74.117649%);stop-opacity:1;"/>
</linearGradient>
<linearGradient id="linear6" gradientUnits="userSpaceOnUse" x1="317.5" y1="233.5" x2="317.5" y2="32.416664" gradientTransform="matrix(0.093759,0,0,0.093759,0,20.158175)">
<stop offset="0" style="stop-color:rgb(25.882354%,64.705884%,96.078432%);stop-opacity:1;"/>
<stop offset="1" style="stop-color:rgb(39.215687%,70.980394%,96.470588%);stop-opacity:1;"/>
</linearGradient>
<linearGradient id="linear7" gradientUnits="userSpaceOnUse" x1="338.666656" y1="233.5" x2="338.666656" y2="32.416664" gradientTransform="matrix(0.093759,0,0,0.093759,0,20.158175)">
<stop offset="0" style="stop-color:rgb(100%,65.490198%,14.901961%);stop-opacity:1;"/>
<stop offset="1" style="stop-color:rgb(100%,71.764708%,30.19608%);stop-opacity:1;"/>
</linearGradient>
<linearGradient id="linear8" gradientUnits="userSpaceOnUse" x1="254" y1="117.083344" x2="254" y2="-52.25" gradientTransform="matrix(0.495103,0,0,0.495103,197.035477,118.016808)">
<stop offset="0" style="stop-color:rgb(96.078432%,96.078432%,96.078432%);stop-opacity:1;"/>
<stop offset="1" style="stop-color:rgb(87.843138%,87.843138%,87.843138%);stop-opacity:1;"/>
</linearGradient>
</defs>
<g id="surface1">
<path style=" stroke:none;fill-rule:nonzero;fill:url(#linear0);" d="M 13.890625 42.050781 L 25.800781 42.050781 L 25.800781 44.035156 L 13.890625 44.035156 Z M 13.890625 42.050781 "/>
<path style=" stroke:none;fill-rule:nonzero;fill:url(#radial0);" d="M 25.800781 42.050781 L 29.769531 42.050781 L 29.769531 40.066406 L 25.800781 40.066406 Z M 25.800781 42.050781 "/>
<path style=" stroke:none;fill-rule:nonzero;fill:url(#radial1);" d="M 13.890625 42.050781 L 9.921875 42.050781 L 9.921875 44.035156 L 13.890625 44.035156 Z M 13.890625 42.050781 "/>
<path style=" stroke:none;fill-rule:nonzero;fill:url(#radial2);" d="M 13.890625 42.050781 L 9.921875 42.050781 L 9.921875 40.066406 L 13.890625 40.066406 Z M 13.890625 42.050781 "/>
<path style=" stroke:none;fill-rule:nonzero;fill:url(#radial3);" d="M 25.800781 42.050781 L 29.769531 42.050781 L 29.769531 44.035156 L 25.800781 44.035156 Z M 25.800781 42.050781 "/>
<path style="fill-rule:nonzero;fill:url(#linear1);stroke-width:3;stroke-linecap:square;stroke-linejoin:round;stroke:rgb(12.941177%,12.941177%,12.941177%);stroke-opacity:1;stroke-miterlimit:4;" d="M 158.734842 -126.3418 L 264.599732 -126.3418 C 270.432508 -126.3418 275.182055 -121.592253 275.182055 -115.759477 L 275.182055 -52.26554 C 275.182055 -46.391101 270.432508 -41.683218 264.599732 -41.683218 L 158.734842 -41.683218 C 152.902065 -41.683218 148.152519 -46.391101 148.152519 -52.26554 L 148.152519 -115.759477 C 148.152519 -121.592253 152.902065 -126.3418 158.734842 -126.3418 Z M 158.734842 -126.3418 " transform="matrix(0.093759,0,0,0.093759,0,20.158175)"/>
<path style="fill-rule:nonzero;fill:url(#linear2);stroke-width:3;stroke-linecap:square;stroke-linejoin:round;stroke:rgb(12.941177%,12.941177%,12.941177%);stroke-opacity:1;stroke-miterlimit:4;" d="M 148.152519 -168.671091 C 142.319742 -168.671091 137.570196 -163.963207 137.570196 -158.088768 L 137.570196 -20.518572 C 137.570196 -14.644133 142.319742 -9.936249 148.152519 -9.936249 L 275.182055 -9.936249 C 281.014831 -9.936249 285.764378 -14.644133 285.764378 -20.518572 L 285.764378 -158.088768 C 285.764378 -163.963207 281.014831 -168.671091 275.182055 -168.671091 Z M 169.317164 -115.759477 C 175.191603 -115.759477 179.899487 -111.009931 179.899487 -105.177154 L 179.899487 -62.847863 C 179.899487 -56.973424 175.191603 -52.26554 169.317164 -52.26554 C 163.484388 -52.26554 158.734842 -56.973424 158.734842 -62.847863 L 158.734842 -105.177154 C 158.734842 -111.009931 163.484388 -115.759477 169.317164 -115.759477 Z M 211.646455 -115.759477 C 217.520894 -115.759477 222.270441 -111.009931 222.270441 -105.177154 L 222.270441 -62.847863 C 222.270441 -56.973424 217.520894 -52.26554 211.646455 -52.26554 C 205.813679 -52.26554 201.064133 -56.973424 201.064133 -62.847863 L 201.064133 -105.177154 C 201.064133 -111.009931 205.813679 -115.759477 211.646455 -115.759477 Z M 254.017409 -115.759477 C 259.850186 -115.759477 264.599732 -111.009931 264.599732 -105.177154 L 264.599732 -62.847863 C 264.599732 -56.973424 259.850186 -52.26554 254.017409 -52.26554 C 248.14297 -52.26554 243.435086 -56.973424 243.435086 -62.847863 L 243.435086 -105.177154 C 243.435086 -111.009931 248.14297 -115.759477 254.017409 -115.759477 Z M 254.017409 -115.759477 " transform="matrix(0.093759,0,0,0.093759,0,20.158175)"/>
<path style="fill-rule:nonzero;fill:url(#linear3);stroke-width:3;stroke-linecap:square;stroke-linejoin:round;stroke:rgb(12.941177%,12.941177%,12.941177%);stroke-opacity:1;stroke-miterlimit:4;" d="M 126.987873 -20.518572 C 115.280658 -20.518572 105.823228 -11.061142 105.823228 0.646073 L 105.823228 85.346318 C 111.697667 85.346318 116.40555 90.054202 116.40555 95.928641 L 116.40555 127.675609 C 116.40555 133.550048 111.697667 138.257932 105.823228 138.257932 L 105.823228 212.334192 C 105.823228 224.041407 115.280658 233.498837 126.987873 233.498837 L 296.3467 233.498837 C 308.053916 233.498837 317.511346 224.041407 317.511346 212.334192 L 317.511346 138.257932 C 311.636907 138.257932 306.929023 133.550048 306.929023 127.675609 L 306.929023 95.928641 C 306.929023 90.054202 311.636907 85.346318 317.511346 85.346318 L 317.511346 0.646073 C 317.511346 -11.061142 308.053916 -20.518572 296.3467 -20.518572 Z M 126.987873 -20.518572 " transform="matrix(0.093759,0,0,0.093759,0,20.158175)"/>
<path style="fill-rule:nonzero;fill:url(#linear4);stroke-width:3;stroke-linecap:square;stroke-linejoin:round;stroke:rgb(12.941177%,12.941177%,12.941177%);stroke-opacity:1;stroke-miterlimit:4;" d="M 148.152519 85.346318 L 275.182055 85.346318 C 281.014831 85.346318 285.764378 90.054202 285.764378 95.928641 L 285.764378 127.675609 C 285.764378 133.508386 281.014831 138.257932 275.182055 138.257932 L 148.152519 138.257932 C 142.319742 138.257932 137.570196 133.508386 137.570196 127.675609 L 137.570196 95.928641 C 137.570196 90.054202 142.319742 85.346318 148.152519 85.346318 Z M 148.152519 85.346318 " transform="matrix(0.093759,0,0,0.093759,0,20.158175)"/>
<path style=" stroke:none;fill-rule:nonzero;fill:url(#linear5);" d="M 30.265625 23.394531 C 25.09375 23.394531 20.929688 27.558594 20.929688 32.726562 C 20.929688 37.898438 25.09375 42.0625 30.265625 42.0625 C 35.4375 42.0625 39.597656 37.898438 39.597656 32.726562 C 39.597656 27.558594 35.4375 23.394531 30.265625 23.394531 Z M 30.265625 30.761719 C 31.351562 30.761719 32.230469 31.640625 32.230469 32.726562 C 32.230469 33.816406 31.351562 34.691406 30.265625 34.691406 C 29.175781 34.691406 28.300781 33.816406 28.300781 32.726562 C 28.300781 31.640625 29.175781 30.761719 30.265625 30.761719 Z M 30.265625 30.761719 "/>
<path style=" stroke:none;fill-rule:nonzero;fill:rgb(93.725491%,32.549021%,31.37255%);fill-opacity:1;" d="M 27.371094 23.851562 C 22.859375 25.316406 20.175781 29.917969 21.109375 34.558594 L 28.300781 32.632812 C 28.332031 31.964844 28.707031 31.351562 29.292969 31.019531 Z M 27.371094 23.851562 "/>
<path style=" stroke:none;fill-rule:nonzero;fill:rgb(40.000001%,73.333335%,41.568628%);fill-opacity:1;" d="M 28.332031 23.597656 L 30.25 30.761719 C 30.925781 30.757812 31.554688 31.101562 31.917969 31.664062 L 39.105469 29.738281 C 37.597656 25.25 32.972656 22.605469 28.332031 23.597656 Z M 28.332031 23.597656 "/>
<path style=" stroke:none;fill-rule:nonzero;fill:url(#linear6);" d="M 21.359375 35.519531 C 22.796875 40.128906 27.488281 42.863281 32.199219 41.859375 L 30.277344 34.695312 C 29.53125 34.699219 28.839844 34.28125 28.503906 33.605469 Z M 21.359375 35.519531 "/>
<path style=" stroke:none;fill-rule:nonzero;fill:url(#linear7);" d="M 32.226562 32.609375 C 32.273438 33.359375 31.886719 34.070312 31.234375 34.4375 L 33.15625 41.601562 C 37.738281 40.117188 40.433594 35.402344 39.375 30.691406 Z M 32.226562 32.609375 "/>
<path style="fill-rule:nonzero;fill:url(#linear8);stroke-width:3;stroke-linecap:round;stroke-linejoin:miter;stroke:rgb(20%,20%,20%);stroke-opacity:1;stroke-miterlimit:4;" d="M 322.802507 92.137337 C 299.554727 92.137337 280.889843 110.843883 280.889843 134.050001 C 280.889843 157.297781 299.554727 176.004328 322.802507 176.004328 C 346.008624 176.004328 364.715171 157.297781 364.715171 134.050001 C 364.715171 110.843883 346.008624 92.137337 322.802507 92.137337 Z M 322.802507 113.093669 C 334.384735 113.093669 343.758839 122.467773 343.758839 134.050001 C 343.758839 145.673891 334.384735 155.006333 322.802507 155.006333 C 311.178617 155.006333 301.846175 145.673891 301.846175 134.050001 C 301.846175 122.467773 311.178617 113.093669 322.802507 113.093669 Z M 322.802507 113.093669 " transform="matrix(0.093759,0,0,0.093759,0,20.158175)"/>
<path style="fill:none;stroke-width:3;stroke-linecap:round;stroke-linejoin:miter;stroke:rgb(20%,20%,20%);stroke-opacity:1;stroke-miterlimit:4;" d="M 322.802507 34.517839 C 267.641108 34.517839 223.228683 78.930264 223.228683 134.050001 C 223.228683 189.2114 267.641108 233.623825 322.802507 233.623825 C 377.963906 233.623825 422.334669 189.2114 422.334669 134.050001 C 422.334669 78.930264 377.963906 34.517839 322.802507 34.517839 Z M 322.802507 113.093669 C 334.384735 113.093669 343.758839 122.467773 343.758839 134.050001 C 343.758839 145.673891 334.384735 155.006333 322.802507 155.006333 C 311.178617 155.006333 301.846175 145.673891 301.846175 134.050001 C 301.846175 122.467773 311.178617 113.093669 322.802507 113.093669 Z M 322.802507 113.093669 " transform="matrix(0.093759,0,0,0.093759,0,20.158175)"/>
</g>
</svg>
